X:1
T:Onward, Upward
T:Ira David Sankey
T:Onward, Upward
T:Public Domain
T:Public Domain
T:Public Domain
C:Ira David Sankey
Z:Public Domain
%%score ( 1 2 ) ( 3 4 )
L:1/8
M:3/4
K:F
V:1 treble 
V:2 treble 
V:3 bass 
V:4 bass 
V:1
 C>[CF] | [FA]2 [EG]2 [FA]>[FB] | [Fc]2 [Fc]2 [FA]>[GB] | [Gc]3 [Fc] [EB]>[Ec] | [FA]4 [FA]>[FA] | %5
w: 1.~On- ward!|ward! Christ- ian sol-|dier, Turn not back|nor sheath thy sword,|Let its blade|
w: 2.~On- ward!|ward! do- ing, dar-|ing, All for Him|who died for thee;|Face the foe|
w: 3.~On- ward!|thy course is fin-|ished, Like the ran-|somed ones be- fore;|Keep the faith|
 [GB]2 [GB]2 [Ec]>[EG] | [FB]2 [FA]2 [FA]>[FA] | [EG]3 [DF] [CE]>[=B,D] | C4 C>C | %9
w: be sharp for con-|quest, In the bat-|tle for the Lord.|From the great|
w: and meet with bold-|ness Dan- ger what-|so- e’er it be.|From the bat-|
w: thro’ per- se- cu-|tion, Nev- er give|the bat- tle o’er.|On- ward! up-|
 [CB]2 [CG]2 [CE]>C | [CA]2 [CA]2 [FA]>[FA] | [^FA]3 [FA] [G=B]>[=FB] | [Ec]4 [FA]>[GB] | %13
w: ter- nal, God Him-|is look- ing down;|He it is who|now com- mands|
w: glo- ry, Ho- ly|are look- ing down,|Thou canst al- most|hear them shout-|
w: tor- ious, Thou shalt|thy ar- mor down,|And thy lov- ing|Sav- ior bids|
 [Ac]2 [Ac]2 [^G=B]>[Ac] | [FA]2 [FA]2 [Fd]>[Fd] | [Fc]3 [GB] [FA]>[EG] | [FA]4 [FA]>[FB] | %17
w: thee, Take the cross|and win the crown.|He it is who|now com- mands|
w: ing: “On! let no|one take thy crown.”|Thou canst al- most|hear them shout-|
w: thee At His hand|re- ceive thy crown.|And thy lov- ing|Sav- ior bids|
 [Fc]3 [Fc] [F=B]>[Fc] | [FA]2 [FA]2 [Fd]>[Fd] | [Fc]3 [GB] [FA]>[EG] | F4 |] %21
w: thee, Take the cross|and win the crown.|||
w: ing: “On! let no|one take thy crown.”|||
w: thee At His hand|re- ceive thy crown.|||
V:2
 C3/2 x/ | x6 | x6 | x6 | x6 | x6 | x6 | x6 | C4 C>C | x11/2 C/ | x6 | x6 | x6 | x6 | x6 | x6 | %16
w: up-||||||||white throne e-|self|||||||
w: up-||||||||tle- ments of|ones|||||||
w: till||||||||ward! till vic-|lay|||||||
 x6 | x6 | x6 | x6 | F4 |] %21
w: |||||
w: |||||
w: |||||
V:3
 [F,A,]>[F,A,] | [F,C]2 [C,C]2 [F,C]>[F,G,] | [F,A,]2 [F,A,]2 [F,C]>[F,C] | %3
 [F,C]3 [F,A,] [C,G,]>[C,C] | [F,C]4 [F,C]>[F,C] | [C,C]2 [C,C]2 [C,G,]>[C,C] | %6
 [F,D]2 [F,C]2 [F,C]>[F,C] | [G,C]3 G, [G,,G,]>[G,,F,] | [C,E,]4 C,>C, | %9
 [C,E,]2 [C,E,]2 [C,G,]>[C,E,] | F,2 F,2 [F,C]>[F,C] | [D,D]3 [D,D] [G,D]>[G,D] | %12
 [C,C]4 [F,C]>[F,C] | [F,C]2 [F,C]2 [F,D]>[F,C] | [F,C]2 [F,C]2 [B,,B,]>[B,,B,] | %15
 [C,A,]3 [C,C] [C,C]>[C,C] | [F,C]4 F,>[F,G,] | [F,A,]3 [F,A,] [F,^G,]>[F,A,] | %18
 [F,C]2 [F,C]2 [B,,B,]>[B,,B,] | [A,,C]3 [B,,D] [C,C]>[C,B,] | [F,,A,]4 |] %21
V:4
 x2 | x6 | x6 | x6 | x6 | x6 | x6 | x3 G, x2 | x4 C,>C, | x6 | F,2 F,2 x2 | x6 | x6 | x6 | x6 | %15
 x6 | x4 F,3/2 x/ | x6 | x6 | x6 | x4 |] %21

